X:1
T:Title
%%score { 1 | 2 }
L:1/8
M:3/4
K:G
V:1 treble nm="Grand Piano"
V:2 treble 
V:1
 z2 z2[Q:1/4=100] GA | B2 G2 A2 | G4 B[DAc] | [DBd]2 [DGB]2 [EGc]2 |[M:2/4] [FA]4 | %5
[M:1/4] [FA][GB] |[M:3/4] [Ac]2 [FA]2 [Fd]2 | B2 G2 B2 | [FA]6- |[M:2/4] [FA]4 |[M:1/4] [FA][GB] | %11
[M:3/4] [Ac]2 [GB]2 [FA]2 | [GB]4 [^GB][GB] | [Bd]2 [Ac]2 [^GB]2 |[M:2/4] [Ac]4 |[M:1/4] [Fd][Ac] | %16
[M:3/4] [DGB]2 [CFA]2 [B,EG]2 | [CEA]2 [B,DG]2 [A,DF]2 | [B,DG]6- |[M:2/4] [B,DG]4 |] %20
V:2
 z2 z2 [G,B,D][G,CD] | [G,DG]2[K:bass] [G,B,D]2 [D,CD]2 | [G,B,D]4 [G,DG]G, | G,2 G,2[K:bass] C,2 | %4
[M:2/4] [D,D]4 |[M:1/4] [D,D][D,D] |[M:3/4] [D,D]2 [D,D]2 [D,D]2 | [G,DG]2 [G,B,D]2 [G,DG]2 | %8
 [D,D]6- |[M:2/4] [D,D]4 |[M:1/4] [D,D][D,D] |[M:3/4] [D,D]2 [D,D]2 [D,D]2 | [G,D]4 [E,E][E,E] | %13
 [E,E]2 [E,E]2 [E,E]2 |[M:2/4] [A,E]4 |[M:1/4] [D,D][D,D] |[M:3/4] G,2 D,2 E,2 | C,2 D,2 D,2 | %18
 G,,6- |[M:2/4] G,,4 |] %20

